svgs/mega.svg

<svg width="192" height="192" viewBox="0 0 192 192" fill="none" xmlns="http://www.w3.org/2000/svg">
<path d="M22 96C22 55.127 55.127 22 96 22C136.873 22 170 55.127 170 96C170 136.873 136.873 170 96 170C55.127 170 22 136.873 22 96Z" stroke="black" stroke-width="12"/>
<path fill-rule="evenodd" clip-rule="evenodd" d="M45 65C45 58.3726 50.3726 53 57 53H68C71.3262 53 74.5032 54.3806 76.7727 56.8122L95.2689 76.6296C95.6643 77.0532 96.3357 77.0532 96.7311 76.6296L115.227 56.8122C117.497 54.3806 120.674 53 124 53H135C141.627 53 147 58.3726 147 65V127C147 133.627 141.627 139 135 139H121C114.373 139 109 133.627 109 127V120.155L100.155 128.646C97.8334 130.875 94.1666 130.875 91.8448 128.646L83 120.155V127C83 133.627 77.6274 139 71 139H57C50.3726 139 45 133.627 45 127V65ZM71 94.3462C71 93.4651 72.0569 93.0146 72.6925 93.6248L95.3075 115.335C95.6944 115.707 96.3056 115.707 96.6925 115.335L119.307 93.6248C119.943 93.0146 121 93.4651 121 94.3462V125C121 126.105 121.895 127 123 127H133C134.105 127 135 126.105 135 125V67C135 65.8954 134.105 65 133 65H126.607C124.944 65 123.356 65.6903 122.221 66.9061L98.1932 92.6502C97.0072 93.9209 94.9928 93.9209 93.8068 92.6502L69.779 66.9061C68.6443 65.6903 67.0558 65 65.3927 65H59C57.8954 65 57 65.8954 57 67V125C57 126.105 57.8954 127 59 127H69C70.1046 127 71 126.105 71 125V94.3462Z" fill="black"/>
</svg>

<svg width="192" height="192" viewBox="0 0 192 192" fill="none" xmlns="http://www.w3.org/2000/svg"><path d="M22 96c0-40.873 33.127-74 74-74s74 33.127 74 74-33.127 74-74 74-74-33.127-74-74Z" stroke="#000" stroke-width="12"/><path fill-rule="evenodd" clip-rule="evenodd" d="M45 65c0-6.627 5.373-12 12-12h11a12 12 0 0 1 8.773 3.812L95.269 76.63a1 1 0 0 0 1.462 0l18.496-19.818A12.002 12.002 0 0 1 124 53h11c6.627 0 12 5.373 12 12v62c0 6.627-5.373 12-12 12h-14c-6.627 0-12-5.373-12-12v-6.845l-8.845 8.491a6 6 0 0 1-8.31 0L83 120.155V127c0 6.627-5.373 12-12 12H57c-6.627 0-12-5.373-12-12V65Zm26 29.346c0-.88 1.057-1.331 1.692-.721l22.616 21.71a.999.999 0 0 0 1.384 0l22.615-21.71c.636-.61 1.693-.16 1.693.721V125a2 2 0 0 0 2 2h10a2 2 0 0 0 2-2V67a2 2 0 0 0-2-2h-6.393a6 6 0 0 0-4.386 1.906L98.193 92.65a3 3 0 0 1-4.386 0L69.779 66.906A6 6 0 0 0 65.393 65H59a2 2 0 0 0-2 2v58a2 2 0 0 0 2 2h10a2 2 0 0 0 2-2V94.346Z" fill="#000"/></svg>
